images/mobile-logo.svg

<svg width="54" height="16" viewBox="0 0 54 16" fill="none" xmlns="http://www.w3.org/2000/svg">
<path d="M0.247188 15C0.193854 15 0.167188 14.9667 0.167188 14.9L0.207188 1.16C0.207188 1.10667 0.233854 1.08 0.287188 1.08H4.32719C5.04719 1.08 5.70719 1.26 6.30719 1.62C6.92052 1.96667 7.40719 2.44 7.76719 3.04C8.12719 3.62667 8.30719 4.29333 8.30719 5.04C8.30719 5.53333 8.23385 5.98 8.08719 6.38C7.94052 6.76667 7.76719 7.1 7.56719 7.38C7.36719 7.64667 7.18719 7.84667 7.02719 7.98C7.74719 8.78 8.10719 9.72 8.10719 10.8L8.12719 14.9C8.12719 14.9667 8.09385 15 8.02719 15H5.76719C5.71385 15 5.68719 14.98 5.68719 14.94V10.8C5.68719 10.32 5.51385 9.90667 5.16719 9.56C4.83385 9.2 4.42052 9.02 3.92719 9.02H2.60719L2.58719 14.9C2.58719 14.9667 2.56052 15 2.50719 15H0.247188ZM2.60719 6.62H4.32719C4.74052 6.62 5.10719 6.46667 5.42719 6.16C5.74719 5.85333 5.90719 5.48 5.90719 5.04C5.90719 4.61333 5.74719 4.24667 5.42719 3.94C5.12052 3.63333 4.75385 3.48 4.32719 3.48H2.60719V6.62ZM9.89563 15C9.84229 15 9.81563 14.9667 9.81563 14.9L9.83563 1.16C9.83563 1.10667 9.86229 1.08 9.91563 1.08H16.3356C16.389 1.08 16.4156 1.11333 16.4156 1.18V3.42C16.4156 3.47333 16.389 3.5 16.3356 3.5H12.2356V6.62H16.3356C16.389 6.62 16.4156 6.64667 16.4156 6.7L16.4356 8.96C16.4356 9.01333 16.409 9.04 16.3556 9.04H12.2356V12.54H16.3556C16.409 12.54 16.4356 12.5733 16.4356 12.64V14.92C16.4356 14.9733 16.409 15 16.3556 15H9.89563ZM21.5816 15.2C20.8482 15.2 20.1816 15.02 19.5816 14.66C18.9949 14.2867 18.5282 13.7933 18.1816 13.18C17.8349 12.5667 17.6616 11.88 17.6616 11.12L17.6816 4.88C17.6816 4.14667 17.8482 3.48 18.1816 2.88C18.5282 2.26667 18.9949 1.78 19.5816 1.42C20.1816 1.04667 20.8482 0.86 21.5816 0.86C22.3149 0.86 22.9749 1.04 23.5616 1.4C24.1482 1.76 24.6149 2.24667 24.9616 2.86C25.3082 3.46 25.4816 4.13333 25.4816 4.88V5.8C25.4816 5.85333 25.4549 5.88 25.4016 5.88H23.1616C23.1082 5.88 23.0816 5.85333 23.0816 5.8V4.88C23.0816 4.44 22.9349 4.06 22.6416 3.74C22.3616 3.42 22.0082 3.26 21.5816 3.26C21.1016 3.26 20.7349 3.42667 20.4816 3.76C20.2282 4.08 20.1016 4.45333 20.1016 4.88V11.12C20.1016 11.6133 20.2416 12.0133 20.5216 12.32C20.8149 12.6267 21.1682 12.78 21.5816 12.78C22.0082 12.78 22.3616 12.6133 22.6416 12.28C22.9349 11.9333 23.0816 11.5467 23.0816 11.12V10.2C23.0816 10.1467 23.1082 10.12 23.1616 10.12H25.4216C25.4749 10.12 25.5016 10.1467 25.5016 10.2V11.12C25.5016 11.88 25.3216 12.5667 24.9616 13.18C24.6149 13.7933 24.1482 14.2867 23.5616 14.66C22.9749 15.02 22.3149 15.2 21.5816 15.2ZM30.6641 15.2C29.9441 15.2 29.2841 15.02 28.6841 14.66C28.0974 14.2867 27.6241 13.8 27.2641 13.2C26.9041 12.5867 26.7241 11.9133 26.7241 11.18L26.7441 4.84C26.7441 4.10667 26.9174 3.44 27.2641 2.84C27.6241 2.24 28.1041 1.76 28.7041 1.4C29.3041 1.04 29.9574 0.86 30.6641 0.86C31.3841 0.86 32.0374 1.04 32.6241 1.4C33.2107 1.76 33.6774 2.24 34.0241 2.84C34.3841 3.44 34.5641 4.10667 34.5641 4.84L34.5841 11.18C34.5841 11.9133 34.4041 12.5867 34.0441 13.2C33.6974 13.8 33.2241 14.2867 32.6241 14.66C32.0374 15.02 31.3841 15.2 30.6641 15.2ZM30.6641 12.78C31.0641 12.78 31.4107 12.62 31.7041 12.3C32.0107 11.9667 32.1641 11.5933 32.1641 11.18L32.1441 4.84C32.1441 4.4 32.0041 4.02667 31.7241 3.72C31.4441 3.41333 31.0907 3.26 30.6641 3.26C30.2507 3.26 29.8974 3.41333 29.6041 3.72C29.3107 4.01333 29.1641 4.38667 29.1641 4.84V11.18C29.1641 11.62 29.3107 12 29.6041 12.32C29.8974 12.6267 30.2507 12.78 30.6641 12.78ZM36.1847 15C36.1314 15 36.1047 14.9667 36.1047 14.9L36.1447 1.16C36.1447 1.10667 36.1714 1.08 36.2247 1.08H40.2647C40.9847 1.08 41.6447 1.26 42.2447 1.62C42.858 1.96667 43.3447 2.44 43.7047 3.04C44.0647 3.62667 44.2447 4.29333 44.2447 5.04C44.2447 5.53333 44.1714 5.98 44.0247 6.38C43.878 6.76667 43.7047 7.1 43.5047 7.38C43.3047 7.64667 43.1247 7.84667 42.9647 7.98C43.6847 8.78 44.0447 9.72 44.0447 10.8L44.0647 14.9C44.0647 14.9667 44.0314 15 43.9647 15H41.7047C41.6514 15 41.6247 14.98 41.6247 14.94V10.8C41.6247 10.32 41.4514 9.90667 41.1047 9.56C40.7714 9.2 40.358 9.02 39.8647 9.02H38.5447L38.5247 14.9C38.5247 14.9667 38.498 15 38.4447 15H36.1847ZM38.5447 6.62H40.2647C40.678 6.62 41.0447 6.46667 41.3647 6.16C41.6847 5.85333 41.8447 5.48 41.8447 5.04C41.8447 4.61333 41.6847 4.24667 41.3647 3.94C41.058 3.63333 40.6914 3.48 40.2647 3.48H38.5447V6.62ZM45.8531 15C45.7865 15 45.7531 14.9667 45.7531 14.9L45.7931 1.16C45.7931 1.10667 45.8198 1.08 45.8731 1.08L49.6131 1.06C50.3465 1.04667 51.0131 1.22 51.6131 1.58C52.2265 1.94 52.7131 2.42667 53.0731 3.04C53.4331 3.64 53.6131 4.30667 53.6131 5.04V10.78C53.6131 11.5533 53.4265 12.26 53.0531 12.9C52.6798 13.5267 52.1798 14.0267 51.5531 14.4C50.9265 14.7733 50.2198 14.9667 49.4331 14.98L45.8531 15ZM48.1931 12.54H49.4331C49.9265 12.54 50.3398 12.3667 50.6731 12.02C51.0198 11.6733 51.1931 11.26 51.1931 10.78V5.02C51.1931 4.59333 51.0331 4.22667 50.7131 3.92C50.4065 3.6 50.0398 3.44667 49.6131 3.46L48.2131 3.48L48.1931 12.54Z" fill="#2F3035"/>
</svg>

<svg width="54" height="16" fill="none" xmlns="http://www.w3.org/2000/svg"><path d="M.247 15c-.053 0-.08-.033-.08-.1l.04-13.74c0-.053.027-.08.08-.08h4.04c.72 0 1.38.18 1.98.54.614.347 1.1.82 1.46 1.42.36.587.54 1.253.54 2 0 .493-.073.94-.22 1.34-.146.387-.32.72-.52 1-.2.267-.38.467-.54.6.72.8 1.08 1.74 1.08 2.82l.02 4.1c0 .067-.033.1-.1.1h-2.26c-.053 0-.08-.02-.08-.06V10.8c0-.48-.173-.893-.52-1.24a1.622 1.622 0 00-1.24-.54h-1.32l-.02 5.88c0 .067-.026.1-.08.1H.247zm2.36-8.38h1.72c.414 0 .78-.153 1.1-.46.32-.307.48-.68.48-1.12 0-.427-.16-.793-.48-1.1a1.501 1.501 0 00-1.1-.46h-1.72v3.14zM9.896 15c-.054 0-.08-.033-.08-.1l.02-13.74c0-.053.026-.08.08-.08h6.42c.053 0 .08.033.08.1v2.24c0 .053-.027.08-.08.08h-4.1v3.12h4.1c.053 0 .08.027.08.08l.02 2.26c0 .053-.027.08-.08.08h-4.12v3.5h4.12c.053 0 .08.033.08.1v2.28c0 .053-.027.08-.08.08h-6.46zm11.686.2c-.734 0-1.4-.18-2-.54a4.14 4.14 0 01-1.4-1.48c-.347-.613-.52-1.3-.52-2.06l.02-6.24c0-.733.166-1.4.5-2 .346-.613.813-1.1 1.4-1.46a3.71 3.71 0 012-.56c.733 0 1.393.18 1.98.54.586.36 1.053.847 1.4 1.46.346.6.52 1.273.52 2.02v.92c0 .053-.027.08-.08.08h-2.24c-.054 0-.08-.027-.08-.08v-.92c0-.44-.147-.82-.44-1.14a1.35 1.35 0 00-1.06-.48c-.48 0-.847.167-1.1.5-.254.32-.38.693-.38 1.12v6.24c0 .493.14.893.42 1.2.293.307.646.46 1.06.46.426 0 .78-.167 1.06-.5.293-.347.44-.733.44-1.16v-.92c0-.053.026-.08.08-.08h2.26c.053 0 .08.027.08.08v.92c0 .76-.18 1.447-.54 2.06a4.142 4.142 0 01-1.4 1.48 3.71 3.71 0 01-1.98.54zm9.082 0c-.72 0-1.38-.18-1.98-.54a4.373 4.373 0 01-1.42-1.46 3.918 3.918 0 01-.54-2.02l.02-6.34c0-.733.173-1.4.52-2 .36-.6.84-1.08 1.44-1.44a3.74 3.74 0 011.96-.54c.72 0 1.373.18 1.96.54.587.36 1.053.84 1.4 1.44.36.6.54 1.267.54 2l.02 6.34c0 .733-.18 1.407-.54 2.02-.347.6-.82 1.087-1.42 1.46-.587.36-1.24.54-1.96.54zm0-2.42c.4 0 .747-.16 1.04-.48.307-.333.46-.707.46-1.12l-.02-6.34c0-.44-.14-.813-.42-1.12a1.374 1.374 0 00-1.06-.46c-.413 0-.767.153-1.06.46-.293.293-.44.667-.44 1.12v6.34c0 .44.147.82.44 1.14.293.307.647.46 1.06.46zm5.52 2.22c-.053 0-.08-.033-.08-.1l.04-13.74c0-.053.027-.08.08-.08h4.04c.72 0 1.38.18 1.98.54.614.347 1.1.82 1.46 1.42.36.587.54 1.253.54 2 0 .493-.073.94-.22 1.34-.146.387-.32.72-.52 1-.2.267-.38.467-.54.6.72.8 1.08 1.74 1.08 2.82l.02 4.1c0 .067-.033.1-.1.1h-2.26c-.053 0-.08-.02-.08-.06V10.8c0-.48-.173-.893-.52-1.24a1.622 1.622 0 00-1.24-.54h-1.32l-.02 5.88c0 .067-.026.1-.08.1h-2.26zm2.36-8.38h1.72c.414 0 .78-.153 1.1-.46.32-.307.48-.68.48-1.12 0-.427-.16-.793-.48-1.1a1.501 1.501 0 00-1.1-.46h-1.72v3.14zm7.31 8.38c-.068 0-.1-.033-.1-.1l.04-13.74c0-.053.026-.08.08-.08l3.74-.02c.733-.013 1.4.16 2 .52.613.36 1.1.847 1.46 1.46.36.6.54 1.267.54 2v5.74a4.13 4.13 0 01-.56 2.12 4.253 4.253 0 01-1.5 1.5 4.212 4.212 0 01-2.12.58l-3.58.02zm2.34-2.46h1.24a1.65 1.65 0 001.24-.52c.346-.347.52-.76.52-1.24V5.02c0-.427-.16-.793-.48-1.1a1.405 1.405 0 00-1.1-.46l-1.4.02-.02 9.06z" fill="#2F3035"/></svg>
